dist/img/content/how-it-works/05.svg

<svg width="29" height="45" viewBox="0 0 29 45" fill="none" xmlns="http://www.w3.org/2000/svg">
<path d="M23.6406 9.14062V2.10938H2.54688V21.7969H16.6094V34.4531H9.57812V29.5312H2.54688V35.8594L5.35938 40.0781H20.8281L23.6406 34.4531V21.7969L18.0156 16.1719H9.57812V9.14062H23.6406Z" fill="#FFD87D"/>
<path d="M23.6406 9.14062L26.4531 11.9531V4.92188L23.6406 2.10938V9.14062Z" fill="#9E964C"/>
<path d="M5.35938 40.0781L8.17188 42.8906H23.6406L20.8281 40.0781H5.35938Z" fill="#9E964C"/>
<path d="M20.8281 40.0781L23.6406 34.4531L26.4531 37.2656L23.6406 42.8906L20.8281 40.0781Z" fill="#9E964C"/>
<path d="M23.6406 21.7969L26.4531 24.6094V37.2656L23.6406 34.4531V21.7969Z" fill="#9E964C"/>
<path d="M2.54688 21.7969L5.35938 24.6094H16.6094V21.7969H2.54688Z" fill="#9E964C"/>
<path d="M9.57812 29.5312L12.3906 32.3438V34.4531H9.57812V29.5312Z" fill="#9E964C"/>
<path d="M23.6406 9.14062H9.57812L12.3906 11.9531H26.4531L23.6406 9.14062Z" fill="#9E964C"/>
<path d="M12.3906 11.9531V16.1719H9.57812V9.14062L12.3906 11.9531Z" fill="#9E964C"/>
<path d="M4.77438 40.4684C4.80181 40.5055 4.83114 40.5412 4.86227 40.5752L7.67477 43.3877C7.8066 43.5196 7.98541 43.5937 8.17188 43.5938H23.6406C23.7707 43.5931 23.8979 43.5561 24.0081 43.487C24.1183 43.418 24.207 43.3195 24.2643 43.2028L27.0824 37.5778C27.1202 37.4773 27.145 37.3724 27.1563 37.2656V24.6094C27.1562 24.4229 27.0821 24.2441 26.9502 24.1123L18.5127 15.6748C18.3809 15.5429 18.2021 15.4688 18.0156 15.4688H13.0938V12.6563H26.4531C26.5922 12.6563 26.7281 12.6151 26.8438 12.5379C26.9594 12.4607 27.0496 12.3509 27.1028 12.2224C27.1301 12.1348 27.148 12.0445 27.1563 11.9531V4.92188C27.1562 4.73541 27.0821 4.5566 26.9502 4.42477L24.1377 1.61227C24.0726 1.54678 23.9951 1.49486 23.9098 1.4595C23.8245 1.42414 23.733 1.40604 23.6406 1.40625H2.54688C2.3604 1.40625 2.18155 1.48033 2.04969 1.61219C1.91783 1.74405 1.84375 1.9229 1.84375 2.10938V21.7969C1.84354 21.8894 1.8617 21.9811 1.89719 22.0665C1.93267 22.152 1.98478 22.2295 2.05047 22.2947L4.86297 25.1072C4.99474 25.2386 5.17326 25.3125 5.35938 25.3125H15.9063V33.75H13.0938V32.3438C13.0937 32.1573 13.0196 31.9785 12.8877 31.8466L10.0752 29.0341C10.0101 28.9687 9.93263 28.9167 9.8473 28.8814C9.76198 28.846 9.67049 28.8279 9.57813 28.8281H2.54688C2.3604 28.8281 2.18155 28.9022 2.04969 29.0341C1.91783 29.1659 1.84375 29.3448 1.84375 29.5313V35.8594C1.84397 35.9982 1.88505 36.1339 1.96188 36.2496L4.77438 40.4684ZM8.46297 42.1875L7.05672 40.7813H20.537L21.9433 42.1875H8.46297ZM24.3438 23.4942L25.75 24.9005V35.5683L24.3438 34.162V23.4942ZM25.5974 37.4063L23.448 41.7059L21.6838 39.9375L23.8333 35.6379L25.5974 37.4063ZM24.3438 3.80672L25.75 5.21297V10.2558L24.3438 8.84953V3.80672ZM24.7558 11.25H12.6817L11.2755 9.84375H23.3495L24.7558 11.25ZM11.6875 12.2442V15.4688H10.2813V10.838L11.6875 12.2442ZM5.65047 23.9063L4.24422 22.5H15.9063V23.9063H5.65047ZM10.2813 31.2286L11.6875 32.6348V33.75H10.2813V31.2286ZM3.25 30.2344H8.875V34.4531C8.875 34.6396 8.94908 34.8185 9.08094 34.9503C9.2128 35.0822 9.39165 35.1563 9.57813 35.1563H16.6094C16.7959 35.1563 16.9747 35.0822 17.1066 34.9503C17.2384 34.8185 17.3125 34.6396 17.3125 34.4531V21.7969C17.3125 21.6104 17.2384 21.4316 17.1066 21.2997C16.9747 21.1678 16.7959 21.0938 16.6094 21.0938H3.25V2.8125H22.9375V8.4375H9.57813C9.39165 8.4375 9.2128 8.51158 9.08094 8.64344C8.94908 8.7753 8.875 8.95415 8.875 9.14063V16.1719C8.875 16.3584 8.94908 16.5372 9.08094 16.6691C9.2128 16.8009 9.39165 16.875 9.57813 16.875H17.7245L22.9375 22.088V34.2872L20.3936 39.375H5.73555L3.25 35.6484V30.2344Z" fill="#222831"/>
</svg>

<svg width="29" height="45" fill="none" xmlns="http://www.w3.org/2000/svg"><path d="M23.64 9.14V2.11H2.548v19.687H16.61v12.656H9.58v-4.922H2.546v6.328l2.812 4.22h15.47l2.812-5.626V21.797l-5.625-5.625H9.578V9.14h14.063z" fill="#FFD87D"/><path d="M23.64 9.14l2.813 2.813V4.922l-2.812-2.813v7.032zM5.36 40.078l2.812 2.813H23.64l-2.813-2.813H5.36zm15.468 0l2.813-5.625 2.812 2.813-2.812 5.625-2.813-2.813z" fill="#9E964C"/><path d="M23.64 21.797l2.813 2.812v12.657l-2.812-2.813V21.797zm-21.093 0l2.812 2.812h11.25v-2.812H2.547zm7.031 7.734l2.813 2.813v2.11H9.578V29.53zM23.64 9.14H9.579l2.813 2.813h14.062l-2.812-2.812z" fill="#9E964C"/><path d="M12.39 11.953v4.219H9.579V9.14l2.813 2.812z" fill="#9E964C"/><path d="M4.774 40.468c.028.037.057.073.088.107l2.813 2.813c.132.132.31.206.497.206H23.64a.699.699 0 00.623-.391l2.818-5.625c.038-.1.063-.206.074-.312V24.609a.703.703 0 00-.206-.497l-8.437-8.437a.703.703 0 00-.497-.206h-4.922v-2.813h13.36a.704.704 0 00.649-.434 1.3 1.3 0 00.053-.269V4.922a.703.703 0 00-.206-.497l-2.812-2.813a.699.699 0 00-.497-.206H2.547a.703.703 0 00-.703.703v19.688a.699.699 0 00.206.498l2.813 2.812a.7.7 0 00.496.206h10.547v8.437h-2.812v-1.406a.704.704 0 00-.206-.497l-2.813-2.813a.698.698 0 00-.497-.206H2.547a.703.703 0 00-.703.703v6.328c0 .14.041.275.118.39l2.812 4.22zm3.689 1.72L7.057 40.78h13.48l1.406 1.407H8.463zm15.88-18.694l1.407 1.407v10.667l-1.406-1.406V23.494zm1.254 13.912l-2.149 4.3-1.764-1.769 2.15-4.3 1.763 1.77zm-1.253-33.6l1.406 1.407v5.043L24.344 8.85V3.807zm.412 7.444H12.682l-1.407-1.406H23.35l1.407 1.406zm-13.069.994v3.225h-1.406v-4.631l1.406 1.406zM5.65 23.906L4.244 22.5h11.662v1.406H5.65zm4.631 7.323l1.406 1.406v1.115h-1.406v-2.521zm-7.031-.995h5.625v4.22a.703.703 0 00.703.702h7.031a.703.703 0 00.703-.703V21.797a.703.703 0 00-.703-.703H3.25V2.812h19.688v5.626H9.578a.703.703 0 00-.703.703v7.03a.703.703 0 00.703.704h8.146l5.213 5.213v12.2l-2.543 5.087H5.736L3.25 35.648v-5.414z" fill="#222831"/></svg>
